svg/weather/hail_line.svg

<?xml version="1.0" encoding="UTF-8"?>
<svg width="24px" height="24px" viewBox="0 0 24 24" version="1.1" xmlns="http://www.w3.org/2000/svg" xmlns:xlink="http://www.w3.org/1999/xlink">
    <title>hail_line</title>
    <g id="Icon" stroke="none" stroke-width="1" fill="none" fill-rule="evenodd">
        <g id="Weather" transform="translate(-289.000000, -96.000000)" fill-rule="nonzero">
            <g id="hail_line" transform="translate(289.000000, 96.000000)">
                <path d="M24,0 L24,24 L0,24 L0,0 L24,0 Z M12.5935,23.2578 L12.5819,23.2595 L12.5109,23.295 L12.4919,23.2987 L12.4767,23.295 L12.4057,23.2595 C12.3958,23.2564 12.387,23.259 12.3821,23.2649 L12.378,23.2758 L12.3609,23.7031 L12.3659,23.7235 L12.3769,23.7357 L12.4805,23.8097 L12.4953,23.8136 L12.5071,23.8097 L12.6107,23.7357 L12.6233,23.7197 L12.6267,23.7031 L12.6096,23.2758 C12.6076,23.2657 12.601,23.2593 12.5935,23.2578 Z M12.8584,23.1453 L12.8445,23.1473 L12.6598,23.2397 L12.6499,23.2499 L12.6472,23.2611 L12.6651,23.6906 L12.6699,23.7034 L12.6784,23.7105 L12.8793,23.8032 C12.8914,23.8069 12.9022,23.803 12.9078,23.7952 L12.9118,23.7812 L12.8777,23.1665 C12.8753,23.1546 12.8674,23.147 12.8584,23.1453 Z M12.143,23.1473 C12.1332,23.1424 12.1222,23.1453 12.1156,23.1526 L12.1099,23.1665 L12.0758,23.7812 C12.0751,23.7927 12.0828,23.8019 12.0926,23.8046 L12.1083,23.8032 L12.3092,23.7105 L12.3186,23.7024 L12.3225,23.6906 L12.3404,23.2611 L12.3372,23.2485 L12.3278,23.2397 L12.143,23.1473 Z" id="MingCute"></path>
                <path d="M14,18 C15.1046,18 16,18.8954 16,20 C16,21.1046 15.1046,22 14,22 C12.8954,22 12,21.1046 12,20 C12,18.8954 12.8954,18 14,18 Z M9.5,17 C10.3284,17 11,17.6716 11,18.5 C11,19.3284 10.3284,20 9.5,20 C8.67157,20 8,19.3284 8,18.5 C8,17.6716 8.67157,17 9.5,17 Z M11.5,2 C14.2856,2 16.66,3.75154 17.5856,6.21198 C20.13,6.90766 22,9.23462 22,12 C22,13.9636 21.0557,15.707 19.6006,16.7999 C19.159,17.1316 18.5321,17.0425 18.2004,16.6009 C17.8687,16.1594 17.9578,15.5325 18.3994,15.2008 C19.3732,14.4693 20,13.308 20,12 C20,10.0145 18.5524,8.36524 16.6552,8.05324 C16.2654,7.98914 15.9477,7.7033 15.8441,7.32051 C15.326,5.40663 13.576,4 11.5,4 C9.01472,4 7,6.01472 7,8.5 C7,8.66909 7.00928,8.83564 7.02729,8.99923 C7.08294,9.50471 6.75509,9.9678 6.26851,10.0896 C4.96468,10.4159 4,11.5965 4,13 C4,14.1092 4.60141,15.079 5.50073,15.5993 C5.97879,15.8758 6.14215,16.4875 5.86561,16.9656 C5.58906,17.4437 4.97733,17.607 4.49927,17.3305 C3.00738,16.4675 2,14.852 2,13 C2,10.9486 3.23468,9.18749 5.00053,8.41614 C5.04543,4.86494 7.93814,2 11.5,2 Z M14.5,14 C15.3284,14 16,14.6716 16,15.5 C16,16.3284 15.3284,17 14.5,17 C13.6716,17 13,16.3284 13,15.5 C13,14.6716 13.6716,14 14.5,14 Z M10,12 C11.1046,12 12,12.8954 12,14 C12,15.1046 11.1046,16 10,16 C8.89543,16 8,15.1046 8,14 C8,12.8954 8.89543,12 10,12 Z" id="形状" fill="#09244B"></path>
            </g>
        </g>
    </g>
</svg>

<svg xmlns="http://www.w3.org/2000/svg" width="24" height="24"><g fill="none" fill-rule="nonzero"><path d="M24 0v24H0V0h24ZM12.594 23.258l-.012.002-.071.035-.02.004-.014-.004-.071-.036c-.01-.003-.019 0-.024.006l-.004.01-.017.428.005.02.01.013.104.074.015.004.012-.004.104-.074.012-.016.004-.017-.017-.427c-.002-.01-.009-.017-.016-.018Zm.264-.113-.014.002-.184.093-.01.01-.003.011.018.43.005.012.008.008.201.092c.012.004.023 0 .029-.008l.004-.014-.034-.614c-.003-.012-.01-.02-.02-.022Zm-.715.002a.023.023 0 0 0-.027.006l-.006.014-.034.614c0 .012.007.02.017.024l.015-.002.201-.093.01-.008.003-.011.018-.43-.003-.012-.01-.01-.184-.092Z"/><path fill="#09244B" d="M14 18a2 2 0 1 1 0 4 2 2 0 0 1 0-4Zm-4.5-1a1.5 1.5 0 1 1 0 3 1.5 1.5 0 0 1 0-3Zm2-15a6.502 6.502 0 0 1 6.086 4.212A6.002 6.002 0 0 1 19.6 16.8a1 1 0 0 1-1.202-1.6 4.001 4.001 0 0 0-1.744-7.148 1.01 1.01 0 0 1-.81-.731A4.5 4.5 0 0 0 7.027 9a1.01 1.01 0 0 1-.76 1.09 3.002 3.002 0 0 0-.767 5.51 1 1 0 1 1-1.002 1.73A5 5 0 0 1 5 8.417 6.5 6.5 0 0 1 11.5 2Zm3 12a1.5 1.5 0 1 1 0 3 1.5 1.5 0 0 1 0-3ZM10 12a2 2 0 1 1 0 4 2 2 0 0 1 0-4Z"/></g></svg>
